!!!COM: Haydn, Franz Joseph
!!!OTL: String Quartet in G Major
!!!OPS: Opus 64
!!!ONM: No. 4
!!!OMD: Allegro con brio
!!!OMV: 1
!!!SCT: H III:66
!!!SCA: Thematisch-bibliographisches Werkevererzeichnis (A. van Hoboken)
!!!YOR: Dover Edition; reprint of Eulenburg Edition
!!!ENC: Frances Bennion
!!!CDT: 1732/3/31/-1809/5/31/
!!!CNT: Oesterreich
!!!YEC: Copyright (c) 1994, 2000 Center for Computer Assisted Research in the Humanities
!!!YEM: Rights to all derivative editions reserved.
!!!YEM: Refer to licensing agreement for further details.
!!!YEN: United States of America
**kern	**kern	**kern	**kern
*k[f#]	*k[f#]	*k[f#]	*k[f#]
*G:	*G:	*G:	*G:
*clefF4	*clefC3	*clefF	*clefF
*M4/4	*M4/4	*M4/4	*M4/4
2..r	2..r	2..r	2..r
8r	8r	8r	16B
.	.	.	16d
=1	=1	=1	=1
4GG	8r	8r	4.g
.	8B	8d	.
4r	8B	8d	.
.	8B	8d	8b
4GG	8r	8r	4.dd
.	8G	8b	.
4r	8g	8b	.
.	8b	8dd	8gg
=2	=2	=2	=2
8r	[2a	[2cc	4gg
8D	.	.	.
8d	.	.	16ff#
.	.	.	16gg
8e	.	.	16ee
.	.	.	16ff#
8f#	8a]	8cc]	8dd
4r	4r	4r	4r
8F#	8d	8a	8cc
=3	=3	=3	=3
4.G	4.d	4a	4cc
.	.	8g	8b
8D#	8B	8f#	8a
8E	8B	8e	8g
8E	8B	8B	8g
8AA	8G	8c#	8a
8AA	8G	8c#	8a
=4	=4	=4	=4
8D	8F#	8d	8d
8r	8r	8r	8r
8AA	8G	8c#	8e
8AA	8G	8c#	16e
.	.	.	16f#
8D	8F#	8d	8d
4.r	4.r	4.r	4r
.	.	.	16B
.	.	.	16d
=5	=5	=5	=5
4GG	8r	8r	4.g
.	8B	8d	.
4r	8B	8d	.
.	8B	8d	8b
4GG	8r	8r	[4dd
.	8G	8b	.
4r	8g	8b	16dd]
.	.	.	16gg
.	8b	8dd	16bb
.	.	.	16gg
=6	=6	=6	=6
8r	[2a	[2cc	4gg
8D	.	.	.
8d	.	.	16ff#
.	.	.	16gg
8e	.	.	16ee
.	.	.	16ff#
8f#	8a]	8cc]	8dd
4r	4r	4r	4r
8F#	8dd	8aa	8ccc
=7	=7	=7	=7
4.G	4.dd	4aa	4ccc
.	.	8gg	8bb
8B	8g#	8ff	8ddd
4.c	4g#	4ff	4ddd
.	4a	8ee	8ccc
8c	.	16dd	16bb
.	.	16cc	16aa
=8	=8	=8	=8
8d	8b	8b	8gg
8d	8g	8b	8gg
8D	8f#	8cc	8aa
8D	8f#	16cc	16aa
.	.	16dd	16bb
8G	8g	8b	8gg
8r	8r	8r	8r
8f#	8d	8cc	8A
8f#	8d	8cc	16A
.	.	.	16B
=9	=9	=9	=9
8g	8d	8b	8G
8r	8r	8r	8r
8f#	8d	8cc	8A
8f#	8d	16cc	16A
.	.	16dd	16B
8g	8d	8b	8G
8g	8d	8b	8G
8f#	8d	8cc	8A
8f#	8d	16cc	16A
.	.	16dd	16B
=10	=10	=10	=10
8g	8d	8b	8G
8r	8r	8r	2r
4g	4b	8e	.
.	.	16e	.
.	.	16f#	.
8a	8cc	8d#	.
8r	8r	4.r	8r
8a	8cc	.	8ddd#
8a	8cc	.	8ddd#
=11	=11	=11	=11
8g	8b	4r	8eee
8r	8r	.	2r
8g	8b	16e	.
.	.	16f#	.
8g	8b	16g	.
.	.	16e	.
8g	8a	8c#	.
8r	8r	4.r	8r
8g	8a	.	8ccc#
8g	8a	.	8ccc#
=12	=12	=12	=12
8f#	8a	1dd	8ddd
8r	8r	.	8r
8FF#	8A	.	16d
.	.	.	16e
8FF#	8A	.	16f#
.	.	.	16d
8GG	8B	.	16e
.	.	.	16f#
8GG	8B	.	16g
.	.	.	16e
8AA	8c	.	16f#
.	.	.	16g
8AA	8c	.	16a
.	.	.	16f#
=13	=13	=13	=13
8BB	8B	2..dd	16g
.	.	.	16a
8BB	8B	.	16b
.	.	.	16g
8AA	8d	.	16f#
.	.	.	16g
8AA	8d	.	16a
.	.	.	16f#
8GG	2B	.	8e
8GG	.	.	4f
8GG#	.	.	.
8GG#	.	8f	8d
=14	=14	=14	=14
4AA	4A	4e	16c#
.	.	.	16e
.	.	.	16a
.	.	.	16cc#
8r	8r	8r	16ee
.	.	.	16cc#
8E	16B	8g#	16dd
.	16d	.	16b
4A	4c#	4a	16cc#
.	.	.	16e
.	.	.	16a
.	.	.	16cc#
8r	8r	8r	16ee
.	.	.	16cc#
8E	16B	8g#	16dd
.	16d	.	16b
=15	=15	=15	=15
4A	8c#	4a	16cc#
.	.	.	16a
.	4.r	.	16g#
.	.	.	16a
4r	.	4r	16cc#
.	.	.	16a
.	.	.	16cc#
.	.	.	16ee
2A	4e	4c#	16gg
.	.	.	16ff#
.	.	.	16ee
.	.	.	16dd
.	8g	8e	16cc#
.	.	.	16b
.	8e	8g	16a
.	.	.	16cc#
=16	=16	=16	=16
4D	8f#	8f#	4.dd
.	8f#	8a	.
4r	8f#	8a	.
.	8f#	8a	8ff#
4D	8r	8r	4.aa
.	8dd	8ff#	.
4r	8dd	8ff#	.
.	8ff#	8aa	8ddd
=17	=17	=17	=17
1r	4.ee	4.gg	4ddd
.	.	.	8ccc#
.	8dd	8ff#	8bb
.	4.cc#	4.ee	8aa
.	.	.	8aa#
.	.	.	8bb
.	8b	8dd	8gg
=18	=18	=18	=18
1r	4.a	4.cc#	4gg
.	.	.	8ff#
.	8g	8b	8ee
.	16f#	16a	8dd
.	16A	16A	.
.	16e	16g	8cc#
.	16A	16A	.
.	16d	16f#	8dd
.	16A	16A	.
.	16f#	16a	8dd#
.	16A	16A	.
=19	=19	=19	=19
4C#	16e	16g	4ee
.	16A	16A	.
.	16e	16g	.
.	16A	16A	.
4r	16e	16g	8cc#
.	16A	16A	.
.	16e	16g	16b
.	16A	16A	16a
4D	16d	16f#	8dd
.	16A	16A	.
.	16e	16g	8cc#
.	16A	16A	.
4r	16d	16f#	8dd
.	16A	16A	.
.	16f#	16a	8dd#
.	16A	16A	.
=20	=20	=20	=20
4C#	16e	16g	4ee
.	16A	16A	.
.	16e	16g	.
.	16A	16A	.
4r	16e	16g	8cc#
.	16A	16A	.
.	16e	16g	16b
.	16A	16A	16a
4D	16d	16f#	4ff#
.	16A	16A	.
.	16d	16f#	.
.	16A	16A	.
4r	16d	16f#	16ee
.	16A	16A	16dd
.	16d	16f#	16cc#
.	16A	16A	16dd
=21	=21	=21	=21
4BB	16d	16g#	4ddd
.	16B	16B	.
.	16d	16g#	.
.	16B	16B	.
4r	16d	16g#	16ccc#
.	16B	16B	16bb
.	16d	16g#	16aa
.	16B	16B	16gg#
[2AA	8A	8a	16aa
.	.	.	16aa
.	8e	8g	16ccc#
.	.	.	16aa
.	8d	8f#	16ddd
.	.	.	16aa
.	8d	8f#	16ff#
.	.	.	16dd
=22	=22	=22	=22
8AA]	8c#	8e	16a
.	.	.	16aa
8AA	8e	8g	16ccc#
.	.	.	16aa
8AA	8d	8f#	16ddd
.	.	.	16aa
8AA	8d	8f#	16ff#
.	.	.	16dd
4AA	4c#	4e	4a
4r	4r	4r	4r
=23	=23	=23	=23
2F	2f	8r	8r
.	.	8a	8aa
.	.	8a	8aa
.	.	8a	8aa
4D	4d	8cc	8ccc
.	.	4b-	4bb-
4E	4e	.	.
.	.	[8g#	[8gg#
=24	=24	=24	=24
4C#	4c#	8g#]	8gg#]
.	.	4a	4aa
4D	4d	.	.
.	.	4f	4ff
4GG	4G	.	.
.	.	4e	4ee
4AA	4A	.	.
.	.	8c#	8cc#
=25	=25	=25	=25
2BB-	2B-	8r	8r
.	.	8d	8dd
.	.	8d	8dd
.	.	8d	8dd
4GG	4G	8f	8ff
.	.	4e-	4ee-
4AA	4A	.	.
.	.	[8c#	[8cc#
=26	=26	=26	=26
4FF#	4F#	8c#]	8cc#]
.	.	4d	4dd
4GG	4G	.	.
.	.	4B-	4b-
4AA	2r	.	.
.	.	4A	4a
4BB	.	.	.
.	.	8G#	8g#
=27	=27	=27	=27
4.C#	4.E	4A	16g
.	.	.	16A
.	.	.	16c#
.	.	.	16e
.	.	8r	16g
.	.	.	16A
8D	8F	8B-	16g
.	.	.	16B-
4.C#	4.E	4A	16g
.	.	.	16A
.	.	.	16c#
.	.	.	16e
.	.	8r	16g
.	.	.	16A
8D	8F	8B-	16g
.	.	.	16B-
=28	=28	=28	=28
8C#	8E	8A	16g
.	.	.	16A
8D	8F	8B-	16g
.	.	.	16B-
8C#	8E	8A	16g
.	.	.	16A
8D	8F	8B-	16g
.	.	.	16B-
2C#	2E	[2A	16g
.	.	.	16A
.	.	.	16c#
.	.	.	16e
.	.	.	16a
.	.	.	16cc#
.	.	.	16ee
.	.	.	16g
=29	=29	=29	=29
4D	8F#	8A]	16f#
.	.	.	16a
.	8r	8r	16dd
.	.	.	16ff#
2.r	8d	8f#	16aa
.	.	.	16gg#
.	8d	8e#	16bb
.	.	.	16gg#
.	8d	8f#	16aa
.	.	.	16a
.	8r	8r	16dd
.	.	.	16ff#
.	8d	8f#	16aa
.	.	.	16gg#
.	8d	8e#	16bb
.	.	.	16gg#
=30	=30	=30	=30
2.r	8d	8f#	16aa
.	.	.	16a
.	8r	8r	16dd
.	.	.	16ff#
.	8d	8f#	16aa
.	.	.	16gg#
.	8d	8e#	16bb
.	.	.	16gg#
.	8d	8f#	16aa
.	.	.	16ff#
.	8r	8r	16ddd
.	.	.	16ddd
8F#	8d	8a#	8ddd
8F#	8d	8a#	8ddd
=31	=31	=31	=31
8G	8d	8a#	8ddd
8r	8r	8b	8bb
8G	8b	8d#	8bb
8G	8b	8d#	8bb
8G	8b	8d#	8bb
8r	8r	8e	8gg
8G	8B	8ee	8gg
8G	8B	8ee	8gg
=32	=32	=32	=32
4A	8A	8dd	8ff#
.	8f#	8f#	8aa
4AA	8e	8g	8cc#
.	8G	8e	8ee
[2DD	[2F#	4d	4dd
.	.	4r	8r
.	.	.	8A
=33	=33	=33	=33
1DD_	2F#]	[1A	8f#
.	.	.	8f#
.	.	.	8d
.	.	.	8d
.	2G	.	8.c#
.	.	.	16e
.	.	.	8g
.	.	.	16e
.	.	.	16c#
=34	=34	=34	=34
4.DD]	2F#	2A]	8.d
.	.	.	16f#
.	.	.	8a
8FF#	.	.	8a
[2GG	[2D	[2B	16a
.	.	.	16g
.	.	.	16g
.	.	.	16f#
.	.	.	16f#
.	.	.	16e
.	.	.	16e
.	.	.	16a
=35	=35	=35	=35
2GG]	2D]	2B]	16a
.	.	.	16g
.	.	.	16g
.	.	.	16f#
.	.	.	16f#
.	.	.	16e
.	.	.	16e
.	.	.	16a
2GG	4.D#	2B	16a
.	.	.	16g
.	.	.	16g
.	.	.	16f#
.	.	.	16f#
.	.	.	16e
.	8E	.	16e
.	.	.	16b
=36	=36	=36	=36
2GG#	2F	2.d	2b
2AA	4F#	.	4d
.	4G	4c#	8e
.	.	.	16d
.	.	.	16e
=37	=37	=37	=37
8D	8F#	8d	8d
8r	8r	8r	8r
8g	8cc#	8aa	8e
8g	8cc#	8aa	16d
.	.	.	16e
8f#	8dd	8aa	8d
8f#	8dd	8r	8d
8g	8cc#	8aa	8e
8g	8cc#	8aa	16d
.	.	.	16e
=38	=38	=38	=38
8f#	8dd	8aa	8d
8r	8r	8r	8r
8g	8cc#	8aa	8e
8g	8cc#	8aa	16d
.	.	.	16e
8f#	8dd	8aa	8d
4r	4.r	4.r	4.r
8AA	.	.	.
=39	=39	=39	=39
8F#	4.r	2..r	1r
8F#	.	.	.
8D	.	.	.
8D	8A	.	.
8.C#	8g	.	.
.	8g	.	.
16E	.	.	.
8G	8e	.	.
8E	8c#	8A	.
=40	=40	=40	=40
4.D	4f#	8a	2..r
.	.	8a	.
.	8r	8f#	.
8C	8A	8e	.
2BB	8a	8.d#	.
.	16a	.	.
.	16f#	16f#	.
.	8d#	8b	.
.	8d#	16a	8B
.	.	16f#	.
=41	=41	=41	=41
4E	4e	4g	8g
.	.	.	8g
4r	4r	8r	8e
.	.	8B	8e
4BB	4f#	8a	8.d#
.	.	16a	.
.	.	16f#	16f#
4r	8r	8d#	8a
.	8A	8f#	16f#
.	.	.	16d#
=42	=42	=42	=42
4E	4G	4g	16e
.	.	.	16g
.	.	.	16b
.	.	.	16ee
4.r	4.r	4.r	16gg
.	.	.	16bb
.	.	.	16gg
.	.	.	16ee
.	.	.	16b
.	.	.	16g
8E	8B	8g	16e
.	.	.	16g
8D#	8B	8a	16f#
.	.	.	16b
8D#	8B	8f#	16a
.	.	.	16b
=43	=43	=43	=43
4E	4B	4g	16e
.	.	.	16g
.	.	.	16b
.	.	.	16ee
4.r	4.r	4.r	16gg
.	.	.	16bb
.	.	.	16gg
.	.	.	16ee
.	.	.	16b
.	.	.	16g
8E	8B	8g	16e
.	.	.	16g
8D#	8B	8a	16f#
.	.	.	16b
8D#	8B	8f#	16a
.	.	.	16b
=44	=44	=44	=44
4E	4B	4g	16e
.	.	.	16ee
.	.	.	16g
.	.	.	16ee
4r	4r	4r	16e
.	.	.	16ee
.	.	.	16g
.	.	.	16ee
4GG#	4d	4b	16e
.	.	.	16dd
.	.	.	16f
.	.	.	16dd
4r	4r	4r	16e
.	.	.	16dd
.	.	.	16g#
.	.	.	16dd
=45	=45	=45	=45
4AA	4c#	4e	16A
.	.	.	16c#
.	.	.	16e
.	.	.	16a
4.r	4.r	4.r	16cc#
.	.	.	16ee
.	.	.	16cc#
.	.	.	16a
.	.	.	16e
.	.	.	16c#
8AA	8E	8c#	16A
.	.	.	16c#
8GG#	8E	8d	16B
.	.	.	16e
8GG#	8E	8B	16d
.	.	.	16e
=46	=46	=46	=46
4AA	4E	4c#	16A
.	.	.	16c#
.	.	.	16e
.	.	.	16a
4.r	4.r	4.r	16cc#
.	.	.	16ee
.	.	.	16cc#
.	.	.	16a
.	.	.	16e
.	.	.	16c#
8AA	8E	8c#	16A
.	.	.	16c#
8GG#	8E	8d	16B
.	.	.	16e
8GG#	8E	8B	16d
.	.	.	16e
=47	=47	=47	=47
4AA	4E	4c#	16A
.	.	.	16a
.	.	.	16c#
.	.	.	16a
4r	4r	4r	16A
.	.	.	16a
.	.	.	16c#
.	.	.	16a
4C#	4e	4g	16A
.	.	.	16g
.	.	.	16B-
.	.	.	16g
4r	4r	4r	16A
.	.	.	16g
.	.	.	16c#
.	.	.	16g
=48	=48	=48	=48
4DD	4A	4f#	16d
.	.	.	16f#
.	.	.	16a
.	.	.	16dd
4.r	4.r	4.r	16ff#
.	.	.	16aa
.	.	.	16ff#
.	.	.	16dd
.	.	.	16a
.	.	.	16ddd
8D	8f#	8a	16aa
.	.	.	16ff#
8C#	8g	8a	16ee
.	.	.	16aa
8C#	8e	8a	16gg
.	.	.	16ee
=49	=49	=49	=49
4D	4f#	4a	16d
.	.	.	16f#
.	.	.	16a
.	.	.	16dd
4.r	4.r	4.r	16ff#
.	.	.	16aa
.	.	.	16ff#
.	.	.	16dd
.	.	.	16a
.	.	.	16ddd
8D	8f#	8a	16aa
.	.	.	16ff#
8C#	8g	8a	16ee
.	.	.	16aa
8C#	8e	8a	16gg
.	.	.	16ee
=50	=50	=50	=50
4D	4f#	4a	16dd
.	.	.	16ddd
.	.	.	16ff#
.	.	.	16ddd
4r	4r	4r	16dd
.	.	.	16ddd
.	.	.	16ff#
.	.	.	16ddd
4D	4f#	4cc	16dd
.	.	.	16ccc
.	.	.	16ff#
.	.	.	16ccc
4r	4r	4r	16dd
.	.	.	16ccc
.	.	.	16ff#
.	.	.	16ccc
=51	=51	=51	=51
1D#	1a	1b 1f#	16dd#
.	.	.	16bb
.	.	.	16ff#
.	.	.	16bb
.	.	.	16ddd#
.	.	.	16bb
.	.	.	16ff#
.	.	.	16dd#
.	.	.	16b
.	.	.	16dd#
.	.	.	16ff#
.	.	.	16dd#
.	.	.	16a
.	.	.	16dd#
.	.	.	16ff#
.	.	.	16a
=52	=52	=52	=52
2E	1g	1b	16g
.	.	.	16gg
.	.	.	16b
.	.	.	16gg
.	.	.	16g
.	.	.	16gg
.	.	.	16b
.	.	.	16gg
2e	.	.	16e
.	.	.	16ee
.	.	.	16g
.	.	.	16ee
.	.	.	16e
.	.	.	16ee
.	.	.	16g
.	.	.	16ee
=53	=53	=53	=53
4C	4c	4c	16c
.	.	.	16e
.	.	.	16c
.	.	.	16e
4BB	4B	4B	16B
.	.	.	16e
.	.	.	16B
.	.	.	16e
2AA#	4A#	4A#	16A#
.	.	.	16e
.	.	.	16g
.	.	.	16e
.	4e	4g	16g
.	.	.	16e
.	.	.	16g
.	.	.	16e
=54	=54	=54	=54
[1BB	4d#	4f#	8B
.	.	.	8bb
.	4f#	4a	8bb
.	.	.	8bb
.	4e	4g	8ddd
.	.	.	4ccc
.	4ee	4gg	.
.	.	.	[8aa#
=55	=55	=55	=55
1BB_	4dd#	4ff#	8aa#]
.	.	.	4bb
.	4dd	4ff	.
.	.	.	4gg#
.	4cc#	4ee	.
.	.	.	4aa
.	4cc	4dd#	.
.	.	.	[8ff#
=56	=56	=56	=56
1BB_	4b	4ee	8ff#]
.	.	.	4gg
.	4a	4cc	.
.	.	.	4dd#
.	4g	4b	.
.	.	.	4ee
.	4e	4g	.
.	.	.	[8a#
=57	=57	=57	=57
1BB]	4d#	4f#	8a#]
.	.	.	4b
.	4D#	4a	.
.	.	.	4a
.	4E	4g	.
.	.	.	4g
.	4G	4A#	.
.	.	.	8e
=58	=58	=58	=58
4BB	4F#	4B	8d#
.	.	.	8B
4.r	4.r	4.r	8B
.	.	.	8B
.	.	.	8B
8BB	8F#	8d	8b
8BB	8F#	8d	8b
8BB	8F#	8d	8b
=59	=59	=59	=59
2.AA	2.F#	2.d 2.c	8dd
.	.	.	8cc
.	.	.	8a
.	.	.	8f#
.	.	.	4c
4r	4r	4r	4r
=60	=60	=60	=60
8FF#	8D	8A	16c
.	.	.	16d
8FF#	8D	8A	16c
.	.	.	16d
8FF#	8D	8A	16c
.	.	.	16d
8FF#	8D	8A	16c
.	.	.	16d
8FF#	8D	8A	8c
4.r	4.r	4.r	4r
.	.	.	16B
.	.	.	16d
=61	=61	=61	=61
4GG	8r	8r	4.g
.	8B	8d	.
4r	8B	8d	.
.	8B	8d	8b
4GG	8r	8r	4.dd
.	8G	8b	.
4r	8g	8b	.
.	8b	8dd	8gg
=62	=62	=62	=62
8r	[2a	[2cc	4gg
8D	.	.	.
8d	.	.	16ff#
.	.	.	16gg
8e	.	.	16ee
.	.	.	16ff#
8f#	8a]	8cc]	8dd
4r	4r	4r	4r
8F#	8d	8a	8cc
=63	=63	=63	=63
4.G	4.d	4a	4cc
.	.	8g	8b
8D#	8B	8f#	8a
8E	8B	8e	8g
8E	8B	8B	8g
8AA	8G	8c#	8a
8AA	8G	8c#	8a
=64	=64	=64	=64
8D	8F#	8d	8d
8r	8r	8r	8r
8AA	8G	8c#	8e
8AA	8G	8c#	16e
.	.	.	16f#
8D	8F#	8d	8d
4.r	4.r	4.r	4r
.	.	.	16B-
.	.	.	16d
=65	=65	=65	=65
4GG	8r	8r	4.g
.	8B-	8d	.
4r	8B-	8d	.
.	8B-	8d	8b-
4GG	8r	8r	4.dd
.	8G	8b-	.
4r	8g	8b-	.
.	8b-	8dd	8gg
=66	=66	=66	=66
8r	8r	2cc	4gg
8A	8e-	.	.
8A	8f	.	8ff
8A	8g	.	8ee-
4B-	4f	4b-	8dd
.	.	.	8ff
8r	4r	8r	8bb-
8B-	.	8ff	8ddd
=67	=67	=67	=67
4e-	8r	2gg	4ddd
.	8b-	.	.
4e	8cc	.	8ccc
.	8dd-	.	8bb-
4f	4cc	4ff	8aa
.	.	.	8ccc
4r	4r	4r	8ddd
.	.	.	8eee-
=68	=68	=68	=68
2f#	8r	2.aa	4eee-
.	8cc	.	.
.	8dd	.	8ddd
.	8ee-	.	8ccc
8g	8dd	.	4ccc
4.r	8f#	.	.
.	8g	8gg	8bb-
.	8c#	16ff#	16aa
.	.	16gg	16bb-
=69	=69	=69	=69
8r	4d	4ff#	4aa
8DD	.	.	.
8DD	2r	2r	2.r
8DD	.	.	.
8FF	.	.	.
4EE-	.	.	.
.	4B-	4g	.
8CC#	.	.	.
=70	=70	=70	=70
[1DD	8A	4f#	2.r
.	8d	.	.
.	8d	2r	.
.	8d	.	.
.	8f	.	.
.	4e-	.	.
.	.	4b-	4gg
.	[8c#	.	.
=71	=71	=71	=71
1DD_	8c#]	4a	4ff#
.	4d	.	.
.	.	4g#	4ff
.	4B	.	.
.	.	4a	4ee
.	4c	.	.
.	.	4f#	4ee-
.	[8A	.	.
=72	=72	=72	=72
2.DD]	8A]	4g	4dd
.	4B-	.	.
.	.	4e	4cc#
.	8G	.	.
.	4F#	4d	16cc
.	.	.	16d
.	.	.	16cc
.	.	.	16e-
8r	8r	8r	16cc
.	.	.	16d
8GG	8B-	8e-	16cc
.	.	.	16e-
=73	=73	=73	=73
8FF#	8A	8d	16cc
.	.	.	16d
8r	8r	8r	16f#
.	.	.	16a
8FF#	8A	8d	16cc
.	.	.	16a
8r	8r	8r	16cc
.	.	.	16ff#
4FF#	4A	4d	16aa
.	.	.	16ff#
.	.	.	16dd
.	.	.	16cc
8r	8r	8r	16a
.	.	.	16f#
8FF#	8A	8d	16d
.	.	.	16c
=74	=74	=74	=74
4GG	4B	4d	16B
.	.	.	16G
.	.	.	16B
.	.	.	16d
8r	8r	8r	16f
.	.	.	16G
8C	8E-	8A-	16f
.	.	.	16A-
8BB	8D	8G	16f
.	.	.	16G
8C	8E-	8A-	16f
.	.	.	16A-
8BB	8D	8G	16f
.	.	.	16G
8C	8E-	8A-	16f
.	.	.	16A-
=75	=75	=75	=75
8BB	8D	8G	16f
.	.	.	16G
8r	8r	8r	16B
.	.	.	16d
8BB	8D	8G	16f
.	.	.	16d
8r	8r	8r	16f
.	.	.	16b
4BB	4D	4G	16dd
.	.	.	16b
.	.	.	16ff
.	.	.	16dd
8r	8r	8r	16b
.	.	.	16g
8BB	8D	8G	16f
.	.	.	16d
=76	=76	=76	=76
4C	4C	4G	16e
.	.	.	16c
.	.	.	16e
.	.	.	16g
8r	8r	8r	16cc
.	.	.	16ee
8C	8c	8e	16gg
.	.	.	16ee
4BB	4B	4g	16dd
.	.	.	16b
.	.	.	16bb
.	.	.	16aa
8r	8r	8r	16gg
.	.	.	16ff#
8BB	8d	8d	16ee
.	.	.	16dd
=77	=77	=77	=77
4AA	4d	4f#	16cc
.	.	.	16a
.	.	.	16ccc
.	.	.	16aa
4r	4r	4r	16ff#
.	.	.	16dd
.	.	.	16cc
.	.	.	16a
2D	2A	2f#	16f#
.	.	.	16d
.	.	.	16c
.	.	.	16d
.	.	.	16c
.	.	.	16d
.	.	.	16c
.	.	.	16d
=78	=78	=78	=78
4G	16G	8g	8B
.	16G	.	.
.	16B	8r	4ddd
.	16d	.	.
2.r	16g	8bb	.
.	16d	.	.
.	16a	8aa	8ccc
.	16d	.	.
.	16b	8gg	8bb
.	16G	.	.
.	16B	4bb	4ddd
.	16d	.	.
.	16g	.	.
.	16d	.	.
.	16a	16aa	8ccc
.	16d	16ff#	.
=79	=79	=79	=79
1r	16b	16dd	4bb
.	16a	16cc	.
.	16g	16b	.
.	16f#	16a	.
.	16e	16g	4ggg
.	16d	16f#	.
.	16c	16e	.
.	16B	16d	.
.	4c	4e	8r
.	.	.	16ddd#
.	.	.	16eee
.	4r	4r	16ddd#
.	.	.	16eee
.	.	.	16ccc
.	.	.	16aa
=80	=80	=80	=80
2r	8d	8b	4gg
.	8d	4gg	.
.	8d	.	4aa
.	8d	8ff#	.
16r	4g	8gg	8gg
16GG	.	.	.
16BB	.	4b	4dd
16D	.	.	.
16G	4r	.	.
16D	.	.	.
16A	.	8a	8cc
16D	.	.	.
=81	=81	=81	=81
16B	4.r	8g	8b
16GG	.	.	.
16BB	.	4b	4dd
16D	.	.	.
16G	.	.	.
16D	.	.	.
16A	8f#	8a	8cc
16D	.	.	.
16B	16dd	4g	4b
16A	16cc	.	.
16G	16b	.	.
16F#	16a	.	.
16E	16g	4r	4gg
16D	16f#	.	.
16C	16e	.	.
16BB	16d	.	.
=82	=82	=82	=82
4C	4e	2r	16r
.	.	.	16e
.	.	.	16a
.	.	.	16cc
4r	4r	.	16ee
.	.	.	16cc
.	.	.	16b
.	.	.	16a
4D	4d	4b 4g	16b
.	.	.	16dd
.	.	.	16gg
.	.	.	16bb
8r	8r	8r	8ddd
8D	8a	8dd	8ff#
=83	=83	=83	=83
2.E	2.a	2.cc#	2.gg
4r	4r	4r	8r
.	.	.	16cc
.	.	.	16ff#
=84	=84	=84	=84
8r	8r	8r	8aa
8F#	8a	8cc 8d	4r
8F#	8a	8cc 8d	.
4r	4r	4r	16ff#
.	.	.	16aa
.	.	.	8ccc
8F#	8a	8cc 8d	4r
8F#	8a	8cc 8d	.
8r	8r	8r	16B
.	.	.	16d
=85	=85	=85	=85
4GG	8r	8r	4.g
.	8B	8d	.
4r	8B	8d	.
.	8B	8d	8b
4GG	8r	8r	4.dd
.	8G	8b	.
4r	8g	8b	.
.	8b	8dd	8gg
=86	=86	=86	=86
8r	[1a	[1cc	4gg
8D	.	.	.
8d	.	.	16ff#
.	.	.	16gg
8e	.	.	16ee
.	.	.	16ff#
[2f#	.	.	4dd
.	.	.	4dd#
=87	=87	=87	=87
2f#]	2a]	2cc]	2ee
2r	4F#	8r	8r
.	.	4ccc	4eee
.	4f#	.	.
.	.	16bb	16ddd
.	.	16aa	16ccc
=88	=88	=88	=88
1r	4g	8gg	8bb
.	.	4bb	4ddd
.	4b	.	.
.	.	16aa	16ccc
.	.	16gg	16bb
.	4cc	4.gg	8aa
.	.	.	4aa
.	4cc#	.	.
.	.	8ee	16bb
.	.	.	16gg
=89	=89	=89	=89
[1DD	4dd	8dd	8ff#
.	.	4dd	4r
.	4.B	.	.
.	.	16b	4ff
.	.	16a	.
.	.	8g#	.
.	8G#	4b	16ee
.	.	.	16dd
.	8A	.	8cc
.	[8c	16a	[8ee
.	.	16g	.
=90	=90	=90	=90
1DD_	8c]	8f#	8ee]
.	8F#	4a	16dd
.	.	.	16cc
.	8G	.	8b
.	4B	16g	4dd
.	.	16f#	.
.	.	8e	.
.	8E	4g	16cc
.	.	.	16b
.	8F#	.	8a
.	[8A	16f#	[8cc
.	.	16e	.
=91	=91	=91	=91
1DD]	8A]	8d	8cc]
.	8D	4f#	16b
.	.	.	16a
.	8E	.	8g
.	4G	16e	4b
.	.	16d	.
.	.	2c#	.
.	16F#	.	16a
.	16G	.	16b
.	8F#	.	8a
.	8E	.	8g
=92	=92	=92	=92
8DD	8D	8d	16f#
.	.	.	16d
8r	8r	8r	16f#
.	.	.	16a
8DD	8A	8f#	16cc
.	.	.	16a
8r	8r	8a	16cc
.	.	.	16ff#
2DD	2f#	2cc	16aa
.	.	.	16ff#
.	.	.	16ccc
.	.	.	16aa
.	.	.	16ff#
.	.	.	16dd
.	.	.	16cc
.	.	.	16a
=93	=93	=93	=93
8GG	8g	8b	16b
.	.	.	16bb
8r	8r	2..r	16ff#
.	.	.	16gg
8C	8g	.	16dd#
.	.	.	16ee
8r	8r	.	16cc
.	.	.	16a
8D	8b	.	8g
4r	4r	.	4r
8D	8f#	.	8d
=94	=94	=94	=94
[1GG	4g	[1d	8b
.	.	.	8b
.	4B	.	8g
.	.	.	8g
.	2c	.	8.f#
.	.	.	16a
.	.	.	8cc
.	.	.	16a
.	.	.	16f#
=95	=95	=95	=95
4.GG]	2B	2d]	8.g
.	.	.	16b
.	.	.	8dd
8BB	.	.	8dd
[2C	[2G	[2e	16dd
.	.	.	16cc
.	.	.	16cc
.	.	.	16b
.	.	.	16b
.	.	.	16a
.	.	.	16a
.	.	.	16dd
=96	=96	=96	=96
2C]	2G]	1e]	16dd
.	.	.	16cc
.	.	.	16cc
.	.	.	16b
.	.	.	16b
.	.	.	16a
.	.	.	16a
.	.	.	16dd
2C	4.G#	.	16dd
.	.	.	16cc
.	.	.	16cc
.	.	.	16b
.	.	.	16b
.	.	.	16a
.	8A	.	16a
.	.	.	16ee
=97	=97	=97	=97
2C#	2B-	2.g	2ee
2D	4B	.	4g
.	4c	4f#	8a
.	.	.	16g
.	.	.	16a
=98	=98	=98	=98
8GG	8B	8g	8g
8r	8r	8r	8r
8f#	8dd	8ccc	8A
8f#	8dd	8ccc	16G
.	.	.	16A
8g	8dd	8bb	8G
8r	8r	8r	8G
8f#	8dd	8ccc	8A
8f#	8dd	8ccc	16G
.	.	.	16A
=99	=99	=99	=99
8g	8dd	8bb	8G
8r	8r	8r	8r
8f#	8dd	8ccc	8A
8r	8r	8r	16G
.	.	.	16A
8g	8dd	8bb	8G
4.r	4.r	4.r	4.r
==	==	==	==
*-	*-	*-	*-
!!!RWG1: This file contains only pitch and duration data.
!!!RWG2: Transposing instruments are not transposed.
!!!RWG3: Spines may have incompatible meters.
!!!RWG4: Durations of rests and tied notes may be interpreted.
!!!RWG: Key is interpreted using the Humdrum key tool.
!!!GTL: 6 Quartetti ("Tost III")
!!!AFT: stage1
!!!END: 1997/04/15
!!!KEY: 2198060636
!!!EMD: Converted from MuseData to Humdrum Dec 16, 2000, by Andreas Kornstaedt using muse2kern.
!!!EMD: Manual editing by Craig Sapp, Nov 2001
